public/assets/svgs/addons/ember-newton-cradle-loader.svg

<?xml version="1.0" encoding="UTF-8" standalone="no"?>
<svg width="58px" height="46px" viewBox="0 0 58 46" version="1.1" xmlns="http://www.w3.org/2000/svg" xmlns:xlink="http://www.w3.org/1999/xlink">
    <!-- Generator: Sketch 40.1 (33804) - http://www.bohemiancoding.com/sketch -->
    <title>57 -Desk Decoration- (science,  laboratory, research, flat)</title>
    <desc>Created with Sketch.</desc>
    <defs></defs>
    <g id="Page-1" stroke="none" stroke-width="1" fill="none" fill-rule="evenodd">
        <g id="Icons" transform="translate(-841.000000, -993.000000)">
            <g id="57--Desk-Decoration--(science,--laboratory,-research,-flat)" transform="translate(841.000000, 993.000000)">
                <path d="M15,22 C14.447,22 14,21.553 14,21 L14,6 C14,5.447 14.447,5 15,5 C15.553,5 16,5.447 16,6 L16,21 C16,21.553 15.553,22 15,22" id="Fill-108" fill="#BDC3C7"></path>
                <path d="M21,22 C20.447,22 20,21.553 20,21 L20,6 C20,5.447 20.447,5 21,5 C21.553,5 22,5.447 22,6 L22,21 C22,21.553 21.553,22 21,22" id="Fill-110" fill="#BDC3C7"></path>
                <path d="M27,22 C26.447,22 26,21.553 26,21 L26,6 C26,5.447 26.447,5 27,5 C27.553,5 28,5.447 28,6 L28,21 C28,21.553 27.553,22 27,22" id="Fill-112" fill="#BDC3C7"></path>
                <path d="M33,22 C32.447,22 32,21.553 32,21 L32,6 C32,5.447 32.447,5 33,5 C33.553,5 34,5.447 34,6 L34,21 C34,21.553 33.553,22 33,22" id="Fill-114" fill="#BDC3C7"></path>
                <path d="M44.0518,22.1543 C43.6328,22.1543 43.2428,21.8893 43.1038,21.4703 L38.0518,6.3163 C37.8768,5.7923 38.1598,5.2253 38.6838,5.0513 C39.2108,4.8763 39.7738,5.1603 39.9478,5.6833 L44.9998,20.8383 C45.1748,21.3623 44.8918,21.9283 44.3678,22.1023 C44.2628,22.1373 44.1558,22.1543 44.0518,22.1543" id="Fill-116" fill="#BDC3C7"></path>
                <path d="M6,43 C5.447,43 5,42.553 5,42 L5,8 C5,7.447 5.447,7 6,7 C6.553,7 7,7.447 7,8 L7,42 C7,42.553 6.553,43 6,43" id="Fill-118" fill="#ECF0F1"></path>
                <path d="M52,43 C51.447,43 51,42.553 51,42 L51,8 C51,7.447 51.447,7 52,7 C52.553,7 53,7.447 53,8 L53,42 C53,42.553 52.553,43 52,43" id="Fill-120" fill="#ECF0F1"></path>
                <path d="M56,46 L2,46 C0.895,46 0,45.105 0,44 C0,42.895 0.895,42 2,42 L56,42 C57.105,42 58,42.895 58,44 C58,45.105 57.105,46 56,46" id="Fill-575" fill="#ECF0F1"></path>
                <path d="M18,24 C18,22.343 16.657,21 15,21 C13.343,21 12,22.343 12,24 C12,25.657 13.343,27 15,27 C16.657,27 18,25.657 18,24" id="Fill-576" fill="#BDC3C7"></path>
                <path d="M24,24 C24,22.343 22.657,21 21,21 C19.343,21 18,22.343 18,24 C18,25.657 19.343,27 21,27 C22.657,27 24,25.657 24,24" id="Fill-577" fill="#ECF0F1"></path>
                <path d="M30,24 C30,22.343 28.657,21 27,21 C25.343,21 24,22.343 24,24 C24,25.657 25.343,27 27,27 C28.657,27 30,25.657 30,24" id="Fill-578" fill="#BDC3C7"></path>
                <path d="M36,24 C36,22.343 34.657,21 33,21 C31.343,21 30,22.343 30,24 C30,25.657 31.343,27 33,27 C34.657,27 36,25.657 36,24" id="Fill-579" fill="#ECF0F1"></path>
                <path d="M48,24 C48,22.343 46.657,21 45,21 C43.343,21 42,22.343 42,24 C42,25.657 43.343,27 45,27 C46.657,27 48,25.657 48,24" id="Fill-580" fill="#BDC3C7"></path>
                <path d="M10,4 C10,1.791 8.209,0 6,0 C3.791,0 2,1.791 2,4 C2,6.209 3.791,8 6,8 C8.209,8 10,6.209 10,4" id="Fill-747" fill="#BDC3C7"></path>
                <path d="M56,4 C56,1.791 54.209,0 52,0 C49.791,0 48,1.791 48,4 C48,6.209 49.791,8 52,8 C54.209,8 56,6.209 56,4" id="Fill-748" fill="#BDC3C7"></path>
                <path d="M48.5548,6 C48.2108,5.41 47.9998,4.732 47.9998,4 C47.9998,3.268 48.2108,2.59 48.5548,2 L9.4448,2 C9.7888,2.59 9.9998,3.268 9.9998,4 C9.9998,4.732 9.7888,5.41 9.4448,6 L48.5548,6 Z" id="Fill-749" fill="#ECF0F1"></path>
            </g>
        </g>
    </g>
</svg>

<svg height="46" viewBox="0 0 58 46" width="58" xmlns="http://www.w3.org/2000/svg"><g fill="none" fill-rule="evenodd"><g fill="#bdc3c7"><path d="m15 22c-.553 0-1-.447-1-1v-15c0-.553.447-1 1-1s1 .447 1 1v15c0 .553-.447 1-1 1"/><path d="m21 22c-.553 0-1-.447-1-1v-15c0-.553.447-1 1-1s1 .447 1 1v15c0 .553-.447 1-1 1"/><path d="m27 22c-.553 0-1-.447-1-1v-15c0-.553.447-1 1-1s1 .447 1 1v15c0 .553-.447 1-1 1"/><path d="m33 22c-.553 0-1-.447-1-1v-15c0-.553.447-1 1-1s1 .447 1 1v15c0 .553-.447 1-1 1"/><path d="m44.0518 22.1543c-.419 0-.809-.265-.948-.684l-5.052-15.154c-.175-.524.108-1.091.632-1.265.527-.175 1.09.109 1.264.632l5.052 15.155c.175.524-.108 1.09-.632 1.264-.105.035-.212.052-.316.052"/></g><path d="m6 43c-.553 0-1-.447-1-1v-34c0-.553.447-1 1-1s1 .447 1 1v34c0 .553-.447 1-1 1" fill="#ecf0f1"/><path d="m52 43c-.553 0-1-.447-1-1v-34c0-.553.447-1 1-1s1 .447 1 1v34c0 .553-.447 1-1 1" fill="#ecf0f1"/><path d="m56 46h-54c-1.105 0-2-.895-2-2s.895-2 2-2h54c1.105 0 2 .895 2 2s-.895 2-2 2" fill="#ecf0f1"/><path d="m18 24c0-1.657-1.343-3-3-3s-3 1.343-3 3 1.343 3 3 3 3-1.343 3-3" fill="#bdc3c7"/><path d="m24 24c0-1.657-1.343-3-3-3s-3 1.343-3 3 1.343 3 3 3 3-1.343 3-3" fill="#ecf0f1"/><path d="m30 24c0-1.657-1.343-3-3-3s-3 1.343-3 3 1.343 3 3 3 3-1.343 3-3" fill="#bdc3c7"/><path d="m36 24c0-1.657-1.343-3-3-3s-3 1.343-3 3 1.343 3 3 3 3-1.343 3-3" fill="#ecf0f1"/><g fill="#bdc3c7"><path d="m48 24c0-1.657-1.343-3-3-3s-3 1.343-3 3 1.343 3 3 3 3-1.343 3-3"/><path d="m10 4c0-2.209-1.791-4-4-4s-4 1.791-4 4 1.791 4 4 4 4-1.791 4-4"/><path d="m56 4c0-2.209-1.791-4-4-4s-4 1.791-4 4 1.791 4 4 4 4-1.791 4-4"/></g><path d="m48.5548 6c-.344-.59-.555-1.268-.555-2s.211-1.41.555-2h-39.11c.344.59.555 1.268.555 2s-.211 1.41-.555 2z" fill="#ecf0f1"/></g></svg>
